X:1
T: Pretty Peggie
C:
R:Jig
Q:180
K:A
M:6/8
L:1/16
|:A2B2c2 B2A2B2|A2F2E2 E4E2|A2B2c2 B2A2B2|c2e2e2 e4E2|
A2B2c2 B2A2B2|A2F2E2 E4d2|c2e2c2 B2A2B2|A6-A4E2:|
|:A2c2e2 e2c2A2|d2f2a2 a2g2f2|e2c2A2 A2B2c2|B2E2E2 E4E2|
A2B2c2 B2A2B2|c2e2e2 e4f2|c2e2c2 B2A2B2|1A6-A4E2:|2A6-A6||
